icons/svg/seamark/fog_signal_additional_night.svg

<?xml version="1.0" encoding="UTF-8" standalone="no"?>
<svg
   xmlns:dc="http://purl.org/dc/elements/1.1/"
   xmlns:cc="http://creativecommons.org/ns#"
   xmlns:rdf="http://www.w3.org/1999/02/22-rdf-syntax-ns#"
   xmlns:svg="http://www.w3.org/2000/svg"
   xmlns="http://www.w3.org/2000/svg"
   xmlns:sodipodi="http://sodipodi.sourceforge.net/DTD/sodipodi-0.dtd"
   xmlns:inkscape="http://www.inkscape.org/namespaces/inkscape"
   width="580"
   height="580"
   id="svg2"
   version="1.1"
   inkscape:version="0.48.4 r9939"
   sodipodi:docname="fog_signal_additional.svg">
  <defs
     id="defs13">
    <inkscape:path-effect
       effect="gears"
       id="path-effect3774"
       is_visible="true"
       teeth="6"
       phi="-1.2" />
    <inkscape:path-effect
       effect="bend_path"
       id="path-effect3772"
       is_visible="false"
       bendpath="m 95.790098,316.51174 c 144.429032,-206.42506 223.313032,-11.7428 339.548092,0"
       prop_scale="1.19"
       scale_y_rel="false"
       vertical="false"
       bendpath-nodetypes="cc" />
  </defs>
  <sodipodi:namedview
     pagecolor="#ffffff"
     bordercolor="#666666"
     borderopacity="1"
     objecttolerance="10"
     gridtolerance="10"
     guidetolerance="10"
     inkscape:pageopacity="0"
     inkscape:pageshadow="2"
     inkscape:window-width="1920"
     inkscape:window-height="1004"
     id="namedview11"
     showgrid="false"
     inkscape:zoom="0.70710678"
     inkscape:cx="196.37693"
     inkscape:cy="310.18754"
     inkscape:window-x="1680"
     inkscape:window-y="0"
     inkscape:window-maximized="1"
     inkscape:current-layer="svg2"
     inkscape:object-nodes="true"
     inkscape:object-paths="false"
     inkscape:snap-midpoints="false"
     inkscape:snap-smooth-nodes="false"
     inkscape:snap-object-midpoints="true" />
  <metadata
     id="metadata2975">image/svg+xmlen<rdf:RDF>
  <cc:Work
     rdf:about="">
    <dc:format>image/svg+xml</dc:format>
    <dc:type
       rdf:resource="http://purl.org/dc/dcmitype/StillImage" />
    <dc:title></dc:title>
  </cc:Work>
</rdf:RDF>
</metadata>
  <path
     style="font-size:medium;font-style:normal;font-variant:normal;font-weight:normal;font-stretch:normal;text-indent:0;text-align:start;text-decoration:none;line-height:normal;letter-spacing:normal;word-spacing:normal;text-transform:none;direction:ltr;block-progression:tb;writing-mode:lr-tb;text-anchor:start;baseline-shift:baseline;opacity:0.82399997999999985;color:#000000;fill:#d89cd8;fill-opacity:1;stroke:none;stroke-width:18.80177879000000019;marker:none;visibility:visible;display:inline;overflow:visible;enable-background:accumulate;font-family:Sans;-inkscape-font-specification:Sans;fill-rule:nonzero"
     d="m 86.34375,114.15625 c -38.048032,32.35586 -68.045357,73.88251 -86.5,121.1875 -1.9261927,14.34898 14.109076,22.2982 25.34375,9.875 16.767436,-43.12511 44.041931,-80.95904 78.6875,-110.40625 8.16594,-12.51098 -4.760964,-26.81484 -17.53125,-20.65625 z"
     id="path3807"
     inkscape:connector-curvature="0"
     sodipodi:nodetypes="ccccc" />
  <path
     style="font-size:medium;font-style:normal;font-variant:normal;font-weight:normal;font-stretch:normal;text-indent:0;text-align:start;text-decoration:none;line-height:normal;letter-spacing:normal;word-spacing:normal;text-transform:none;direction:ltr;block-progression:tb;writing-mode:lr-tb;text-anchor:start;baseline-shift:baseline;opacity:0.82399997999999985;color:#000000;fill:#d89cd8;fill-opacity:1;stroke:none;stroke-width:18.80177879000000019;marker:none;visibility:visible;display:inline;overflow:visible;enable-background:accumulate;font-family:Sans;-inkscape-font-specification:Sans;fill-rule:nonzero"
     d="M 118.21875,151.65625 C 86.337115,178.7649 61.215213,213.58545 45.75,253.21875 c -0.927025,15.89822 15.125324,19.99686 23.03125,8.9375 13.934289,-35.82661 36.5891,-67.25902 65.375,-91.71875 7.47325,-13.10505 -4.86442,-23.43867 -15.9375,-18.78125 z"
     id="path3807-8"
     inkscape:connector-curvature="0"
     sodipodi:nodetypes="ccccc" />
  <path
     style="font-size:medium;font-style:normal;font-variant:normal;font-weight:normal;font-stretch:normal;text-indent:0;text-align:start;text-decoration:none;line-height:normal;letter-spacing:normal;word-spacing:normal;text-transform:none;direction:ltr;block-progression:tb;writing-mode:lr-tb;text-anchor:start;baseline-shift:baseline;opacity:0.82399997999999985;color:#000000;fill:#d89cd8;fill-opacity:1;stroke:none;stroke-width:18.80177879000000019;marker:none;visibility:visible;display:inline;overflow:visible;enable-background:accumulate;font-family:Sans;-inkscape-font-specification:Sans;fill-rule:nonzero"
     d="m 148.84375,187.75 c -25.9339,22.05794 -46.35308,50.41659 -58.9375,82.65625 -0.64454,12.88234 12.8358,16.62421 19.71875,7.65625 11.27338,-28.99827 29.61003,-54.42412 52.90625,-74.21875 5.52567,-12.34083 -3.42851,-19.09604 -13.6875,-16.09375 z"
     id="path3807-5"
     inkscape:connector-curvature="0"
     sodipodi:nodetypes="ccccc" />
</svg>

<svg width="580" height="580" viewBox="0 0 580 580" fill="none" xmlns="http://www.w3.org/2000/svg">
<g clip-path="url(#clip0)">
<path opacity="0.824" d="M86.3437 114.156C48.2957 146.512 18.2984 188.038 -0.156249 235.343C-2.08244 249.692 13.9528 257.642 25.1875 245.218C41.9549 202.093 69.2294 164.259 103.875 134.812C112.041 122.301 99.114 107.997 86.3437 114.156Z" fill="#D89CD8"/>
<path opacity="0.824" d="M118.219 151.657C86.3371 178.765 61.2152 213.586 45.75 253.219C44.823 269.117 60.8753 273.216 68.7812 262.157C82.7155 226.33 105.37 194.898 134.156 170.438C141.63 157.333 129.292 146.999 118.219 151.657Z" fill="#D89CD8"/>
<path opacity="0.824" d="M148.844 187.75C122.91 209.808 102.491 238.166 89.9063 270.406C89.2617 283.288 102.742 287.03 109.625 278.062C120.898 249.064 139.235 223.638 162.531 203.844C168.057 191.503 159.103 184.748 148.844 187.75Z" fill="#D89CD8"/>
</g>
<defs>
<clipPath id="clip0">
<path d="M0 0H580V580H0V0Z" fill="white"/>
</clipPath>
</defs>
</svg>
